build/svg/cmd/lc_toggleobjectrotatemode.svg

<?xml version="1.0" encoding="UTF-8" standalone="no"?>
<svg
   xmlns:dc="http://purl.org/dc/elements/1.1/"
   xmlns:cc="http://creativecommons.org/ns#"
   xmlns:rdf="http://www.w3.org/1999/02/22-rdf-syntax-ns#"
   xmlns:svg="http://www.w3.org/2000/svg"
   xmlns="http://www.w3.org/2000/svg"
   xmlns:sodipodi="http://sodipodi.sourceforge.net/DTD/sodipodi-0.dtd"
   xmlns:inkscape="http://www.inkscape.org/namespaces/inkscape"
   viewBox="0 0 24 24"
   version="1.1"
   id="svg4"
   sodipodi:docname="lc_toggleobjectrotatemode.svg"
   inkscape:version="0.92.4 (5da689c313, 2019-01-14)"
   inkscape:export-filename="/home/jupiter007/Libreoffice yaru theme fullcolor/build/cmd/lc_toggleobjectrotatemode.png"
   inkscape:export-xdpi="96"
   inkscape:export-ydpi="96">
  <metadata
     id="metadata10">
    <rdf:RDF>
      <cc:Work
         rdf:about="">
        <dc:format>image/svg+xml</dc:format>
        <dc:type
           rdf:resource="http://purl.org/dc/dcmitype/StillImage" />
      </cc:Work>
    </rdf:RDF>
  </metadata>
  <defs
     id="defs8" />
  <sodipodi:namedview
     pagecolor="#ffffff"
     bordercolor="#666666"
     borderopacity="1"
     objecttolerance="10"
     gridtolerance="10"
     guidetolerance="10"
     inkscape:pageopacity="0"
     inkscape:pageshadow="2"
     inkscape:window-width="1920"
     inkscape:window-height="1011"
     id="namedview6"
     showgrid="true"
     inkscape:zoom="19.666667"
     inkscape:cx="8.7762528"
     inkscape:cy="10.064909"
     inkscape:window-x="0"
     inkscape:window-y="32"
     inkscape:window-maximized="1"
     inkscape:current-layer="svg4">
    <inkscape:grid
       type="xygrid"
       id="grid829" />
  </sodipodi:namedview>
  <path
     sodipodi:nodetypes="ccccc"
     style="fill:#1a7fd4;fill-opacity:1"
     id="path2-1"
     d="M 3.0000001,21 H 15 V 15 L 3.0000001,19 Z"
     inkscape:connector-curvature="0" />
  <path
     sodipodi:nodetypes="ccccc"
     style="opacity:1;fill:#1a7fd4;fill-opacity:1"
     id="path4"
     d="m 15,3 v 12 h 6 L 17,3 Z"
     inkscape:connector-curvature="0" />
  <path
     style="fill:#e95420;fill-opacity:1;stroke:none;stroke-width:1px;stroke-linecap:butt;stroke-linejoin:miter;stroke-opacity:1"
     d="M 5,16 2.0000002,12 7.977903,11.98311 Z"
     id="path833"
     inkscape:connector-curvature="0"
     sodipodi:nodetypes="cccc" />
  <path
     style="fill:#e95420;fill-opacity:1;stroke:none;stroke-width:1px;stroke-linecap:butt;stroke-linejoin:miter;stroke-opacity:1"
     d="M 3.999997,12 V 9 c 0,-2 1,-3 3,-3 L 10.98474,5.98309 11,8 H 8 C 6,8 6,8 6,10 v 2 z"
     id="path835"
     inkscape:connector-curvature="0"
     sodipodi:nodetypes="ccccccccc" />
  <path
     sodipodi:nodetypes="cccc"
     inkscape:connector-curvature="0"
     id="path831"
     d="M 14,7 9.9999996,9.9999998 9.9831096,4.022097 Z"
     style="fill:#e95420;fill-opacity:1;stroke:none;stroke-width:1px;stroke-linecap:butt;stroke-linejoin:miter;stroke-opacity:1" />
</svg>

<svg xmlns="http://www.w3.org/2000/svg" viewBox="0 0 24 24"><path d="M3 21h12v-6L3 19zM15 3v12h6L17 3z" fill="#1a7fd4"/><path d="M5 16l-3-4 5.978-.017z" fill="#e95420"/><path d="M4 12V9c0-2 1-3 3-3l3.985-.017L11 8H8c-2 0-2 0-2 2v2z" fill="#e95420"/><path d="M14 7l-4 3-.017-5.978z" fill="#e95420"/></svg>
